; generated by PrusaSlicer 2.5.0+win64 on 2022-11-25 at 04:23:18 UTC


;
;

;
;
; TODO: check the size of the extruder and the y-bar clearance. Optimize & test supports.

; external perimeters extrusion width = 0.42mm
; perimeters extrusion width = 0.44mm
; infill extrusion width = 0.44mm
; solid infill extrusion width = 0.44mm
; top infill extrusion width = 0.44mm
; first layer extrusion width = 0.56mm

; external perimeters extrusion width = 0.42mm
; perimeters extrusion width = 0.44mm
; infill extrusion width = 0.44mm
; solid infill extrusion width = 0.44mm
; top infill extrusion width = 0.44mm
; first layer extrusion width = 0.56mm

; external perimeters extrusion width = 0.42mm
; perimeters extrusion width = 0.44mm
; infill extrusion width = 0.44mm
; solid infill extrusion width = 0.44mm
; top infill extrusion width = 0.44mm
; first layer extrusion width = 0.56mm

M107
M190 S70 ; set bed temperature and wait for it to be reached
M104 S240 ; set temperature
;TYPE:Custom
; M190 S0
; M109 S0 ; uncomment to remove set&wait temp gcode added automatically after this start gcode
print_start EXTRUDER=240 BED=70
M109 S240 ; set temperature and wait for it to be reached
G21 ; set units to millimeters
G90 ; use absolute coordinates
M83 ; use relative distances for extrusion
M107
;LAYER_CHANGE
;Z:0.25
;HEIGHT:0.25
;BEFORE_LAYER_CHANGE
;0.25
G92 E0

G1 Z.25 F18000
;AFTER_LAYER_CHANGE
;0.25
G1 E-2 F3000
G1 Z.65 F18000
G1 X83.377 Y63.836
G1 Z.25
G1 E2 F1800
M204 S1000
;TYPE:External perimeter
;WIDTH:0.559999
G1 X83.279 Y63.671 E.01014
G1 X83.127 Y63.62 E.00843
G1 X79.38 Y63.62 E.19719
G1 X79.38 Y56.38 E.38103
G1 X83 Y56.38 E.19052
G1 X83.173 Y56.376 E.00913
G1 X83.311 Y56.301 E.00822
G1 X83.38 Y56.127 E.00986
G1 X83.38 Y48.38 E.40771
G1 X90.62 Y48.38 E.38103
G1 X90.62 Y71.62 E1.22309
G1 X83.38 Y71.62 E.38103
G1 X83.377 Y63.896 E.4065
M204 S3000
G1 X83.459 Y63.662 F18000
G1 X83.855 Y63.731
M204 S1000
;TYPE:Perimeter
G1 F1800
G1 X83.832 Y63.59 E.00747
G1 X83.679 Y63.352 E.01492
G1 X83.394 Y63.162 E.01803
G1 X83.127 Y63.114 E.01426
G1 X79.886 Y63.114 E.17054
G1 X79.886 Y56.886 E.32774
G1 X83 Y56.886 E.16387
G1 X83.394 Y56.838 E.02087
G1 X83.678 Y56.649 E.01799
G1 X83.831 Y56.412 E.01482
G1 X83.886 Y56.127 E.0153
G1 X83.886 Y53.115 E.15851
;WIDTH:0.603916
G1 X83.908 Y52.886 E.01317
;WIDTH:0.647833
G1 X83.93 Y52.657 E.01422
;WIDTH:0.69175
G1 X83.952 Y52.427 E.01527
;WIDTH:0.697847
G1 X83.955 Y51.501 E.06207
G1 X83.932 Y51.319 E.01228
;WIDTH:0.651898
G1 X83.909 Y51.137 E.0114
;WIDTH:0.605949
G1 X83.886 Y50.955 E.01053
;WIDTH:0.559999
G1 X83.886 Y48.886 E.10885
G1 X85.885 Y48.886 E.10519
;WIDTH:0.603916
G1 X86.114 Y48.908 E.01317
;WIDTH:0.647833
G1 X86.343 Y48.93 E.01422
;WIDTH:0.69175
G1 X86.573 Y48.952 E.01527
G1 X87.436 Y48.951 E.05729
;WIDTH:0.68975
G1 X87.558 Y48.931 E.00812
;WIDTH:0.650186
G1 X87.679 Y48.912 E.00761
;WIDTH:0.610622
G1 X87.8 Y48.892 E.00711
;WIDTH:0.571058
G1 X88.139 Y48.886 E.01824
;WIDTH:0.559999
G1 X90.114 Y48.886 E.10392
G1 X90.114 Y49.726 E.04419
G1 X90.114 Y50.885 E.061
;WIDTH:0.603917
G1 X90.092 Y51.114 E.01317
;WIDTH:0.647834
G1 X90.07 Y51.343 E.01422
;WIDTH:0.691751
G1 X90.048 Y51.573 E.01527
G1 X90.071 Y52.5 E.0615
;WIDTH:0.646014
G1 X90.092 Y52.772 E.01686
;WIDTH:0.603007
G1 X90.114 Y53.045 E.01563
;WIDTH:0.559999
G1 X90.114 Y66.929 E.73069
;WIDTH:0.603249
G1 X90.092 Y67.141 E.01214
;WIDTH:0.646499
G1 X90.07 Y67.352 E.0131
;WIDTH:0.689749
G1 X90.049 Y67.564 E.01406
G1 X90.056 Y67.818 E.01681
;WIDTH:0.675427
G1 X90.071 Y68.499 E.04406
;WIDTH:0.646015
G1 X90.092 Y68.772 E.01686
;WIDTH:0.603007
G1 X90.114 Y69.045 E.01563
;WIDTH:0.559999
G1 X90.114 Y71.114 E.10885
G1 X88.046 Y71.114 E.10884
;WIDTH:0.59879
G1 X87.737 Y71.094 E.01753
;WIDTH:0.637581
G1 X87.428 Y71.075 E.01878
;WIDTH:0.676371
G1 X87.119 Y71.055 E.02003
;WIDTH:0.691603
G1 X86.574 Y71.048 E.03615
G1 X86.344 Y71.07 E.0153
;WIDTH:0.647735
G1 X86.115 Y71.092 E.01425
;WIDTH:0.603867
G1 X85.885 Y71.114 E.01319
;WIDTH:0.559999
G1 X83.886 Y71.114 E.10519
G1 X83.886 Y68.801 E.12172
;WIDTH:0.598476
G1 X83.906 Y68.595 E.01173
;WIDTH:0.636952
G1 X83.925 Y68.388 E.01256
;WIDTH:0.675428
G1 X83.944 Y68.182 E.01338
;WIDTH:0.697847
G1 X83.955 Y67.501 E.04565
G1 X83.932 Y67.319 E.01228
;WIDTH:0.651898
G1 X83.909 Y67.137 E.0114
;WIDTH:0.605949
G1 X83.886 Y66.955 E.01053
;WIDTH:0.559999
G1 X83.886 Y63.923 E.15954
G1 X83.864 Y63.79 E.00712
M204 S3000
G1 E-2 F3000
G1 Z.65 F18000
G1 X85.13 Y51.833
G1 Z.25
G1 E2 F1800
M204 S1000
;TYPE:External perimeter
G1 X85.291 Y51.224 E.03314
G1 X85.549 Y50.806 E.02584
G1 X85.851 Y50.513 E.02214
G1 X86.21 Y50.295 E.02214
G1 X86.623 Y50.161 E.02283
G1 X87.168 Y50.13 E.02873
G1 X87.659 Y50.242 E.02651
G1 X88.137 Y50.506 E.02873
G1 X88.487 Y50.851 E.02583
G1 X88.705 Y51.21 E.02214
G1 X88.839 Y51.623 E.02282
G1 X88.87 Y52.167 E.02869
G1 X88.709 Y52.776 E.03314
G1 X88.441 Y53.203 E.02651
G1 X88.034 Y53.566 E.02873
G1 X87.594 Y53.783 E.02584
G1 X87.182 Y53.87 E.02214
G1 X86.749 Y53.86 E.02283
G1 X86.224 Y53.709 E.02873
G1 X85.806 Y53.451 E.02584
G1 X85.513 Y53.149 E.02214
G1 X85.295 Y52.79 E.02214
G1 X85.161 Y52.377 E.02282
G1 X85.134 Y51.893 E.02553
M204 S3000
G1 X84.809 Y51.595 F18000
G1 X84.572 Y51.788
M204 S1000
;TYPE:Perimeter
;WIDTH:0.697847
G1 F1800
G1 X84.587 Y51.59 E.01336
G1 X84.659 Y51.421 E.01228
;WIDTH:0.651898
G1 X84.732 Y51.253 E.0114
;WIDTH:0.605949
G1 X84.804 Y51.084 E.01053
;WIDTH:0.559999
G1 X85.085 Y50.581 E.0303
G1 X85.448 Y50.191 E.02809
G1 X85.89 Y49.891 E.02809
;WIDTH:0.596432
G1 X86.132 Y49.777 E.0151
;WIDTH:0.632865
G1 X86.374 Y49.663 E.01612
;WIDTH:0.662308
G1 X86.482 Y49.626 E.00722
;WIDTH:0.69175
G1 X86.591 Y49.59 E.00757
G1 X87.136 Y49.567 E.03621
;WIDTH:0.68975
G1 X87.366 Y49.579 E.0152
G1 X87.545 Y49.653 E.01281
;WIDTH:0.6465
G1 X87.724 Y49.726 E.01194
;WIDTH:0.60325
G1 X87.904 Y49.799 E.01107
;WIDTH:0.559999
G1 X88.382 Y50.063 E.02873
G1 X88.809 Y50.448 E.0303
G1 X88.915 Y50.581 E.00895
G1 X89.183 Y51.043 E.02809
;WIDTH:0.603917
G1 X89.259 Y51.226 E.0113
;WIDTH:0.647834
G1 X89.334 Y51.408 E.0122
;WIDTH:0.691751
G1 X89.41 Y51.591 E.0131
G1 X89.433 Y52.135 E.03616
;WIDTH:0.683974
G1 X89.426 Y52.323 E.01234
G1 X89.349 Y52.521 E.01388
;WIDTH:0.642649
G1 X89.273 Y52.718 E.01297
;WIDTH:0.601324
G1 X89.196 Y52.916 E.01206
;WIDTH:0.559999
G1 X88.916 Y53.418 E.03026
G1 X88.372 Y53.944 E.03981
G1 X87.867 Y54.22 E.0303
G1 X87.351 Y54.357 E.02809
G1 X86.819 Y54.376 E.02805
G1 X86.084 Y54.196 E.03981
G1 X85.581 Y53.915 E.0303
G1 X85.191 Y53.552 E.02809
G1 X84.891 Y53.11 E.02809
;WIDTH:0.596432
G1 X84.777 Y52.868 E.01511
;WIDTH:0.632864
G1 X84.663 Y52.626 E.01612
;WIDTH:0.662307
G1 X84.626 Y52.518 E.00722
;WIDTH:0.69175
G1 X84.59 Y52.409 E.00757
G1 X84.567 Y51.865 E.03616
;WIDTH:0.697847
G1 X84.568 Y51.848 E.00111
M204 S3000
G1 E-2 F3000
G1 Z.65 F18000
G1 X88.371 Y49.433
G1 Z.25
G1 E2 F1800
M204 S1000
;WIDTH:0.640055
G1 X89.567 Y49.433 E.07293
G1 X89.567 Y50.592 E.07066
G1 X89.378 Y50.291 E.0217
G1 X88.938 Y49.804 E.03997
G1 X88.421 Y49.466 E.03768
M204 S3000
G1 E-2 F3000
G1 Z.65 F18000
G1 X84.433 Y50.592
G1 Z.25
G1 E2 F1800
M204 S1000
;WIDTH:0.640053
G1 X84.433 Y49.433 E.07066
G1 X85.592 Y49.433 E.07066
G1 X85.291 Y49.622 E.0217
G1 X84.804 Y50.062 E.03997
G1 X84.467 Y50.543 E.0358
M204 S3000
G1 E-2 F3000
G1 Z.65 F18000
G1 X87.168 Y66.13
G1 Z.25
G1 E2 F1800
M204 S1000
;TYPE:External perimeter
;WIDTH:0.559999
G1 X87.659 Y66.242 E.02651
G1 X88.136 Y66.506 E.02869
G1 X88.566 Y66.966 E.03314
G1 X88.783 Y67.406 E.02584
G1 X88.87 Y67.818 E.02214
G1 X88.86 Y68.251 E.02282
G1 X88.709 Y68.776 E.02873
G1 X88.451 Y69.194 E.02584
G1 X88.149 Y69.487 E.02214
G1 X87.776 Y69.709 E.02287
G1 X87.252 Y69.86 E.02869
G1 X86.624 Y69.839 E.03309
G1 X86.159 Y69.68 E.02583
G1 X85.806 Y69.451 E.02214
G1 X85.507 Y69.138 E.02283
G1 X85.243 Y68.66 E.02873
G1 X85.13 Y68.182 E.02584
G1 X85.14 Y67.749 E.02283
G1 X85.291 Y67.224 E.02873
G1 X85.549 Y66.806 E.02584
G1 X85.851 Y66.513 E.02214
G1 X86.21 Y66.295 E.02214
G1 X86.623 Y66.161 E.02283
G1 X87.108 Y66.134 E.02557
M204 S3000
G1 X87.399 Y65.804 F18000
G1 X87.192 Y65.636
M204 S1000
;TYPE:Perimeter
G1 F1800
G1 X87.351 Y65.643 E.0084
G1 X87.904 Y65.799 E.03022
G1 X88.381 Y66.063 E.02869
G1 X88.58 Y66.221 E.01339
G1 X88.944 Y66.628 E.02873
G1 X89.22 Y67.133 E.0303
;WIDTH:0.603249
G1 X89.287 Y67.3 E.01028
;WIDTH:0.646499
G1 X89.354 Y67.467 E.01109
;WIDTH:0.689749
G1 X89.421 Y67.634 E.0119
G1 X89.434 Y67.818 E.01216
;WIDTH:0.683974
G1 X89.426 Y68.323 E.03312
G1 X89.349 Y68.521 E.01388
;WIDTH:0.642649
G1 X89.273 Y68.718 E.01297
;WIDTH:0.601324
G1 X89.196 Y68.916 E.01206
;WIDTH:0.559999
G1 X88.915 Y69.419 E.0303
G1 X88.552 Y69.809 E.02809
G1 X88.11 Y70.109 E.02809
;WIDTH:0.602999
G1 X87.757 Y70.249 E.02167
;WIDTH:0.645999
G1 X87.404 Y70.388 E.02337
;WIDTH:0.675491
G1 X87.182 Y70.434 E.01465
;WIDTH:0.691603
G1 X86.592 Y70.41 E.03918
G1 X86.409 Y70.335 E.01313
;WIDTH:0.647735
G1 X86.226 Y70.259 E.01223
;WIDTH:0.603867
G1 X86.043 Y70.183 E.01132
;WIDTH:0.559999
G1 X85.581 Y69.915 E.02809
G1 X85.191 Y69.552 E.02805
G1 X84.8 Y68.905 E.03981
;WIDTH:0.595321
G1 X84.73 Y68.724 E.0109
;WIDTH:0.630642
G1 X84.66 Y68.544 E.01161
;WIDTH:0.665963
G1 X84.591 Y68.363 E.01232
;WIDTH:0.675428
G1 X84.566 Y67.819 E.03522
;WIDTH:0.697847
G1 X84.587 Y67.59 E.0154
G1 X84.659 Y67.421 E.01228
;WIDTH:0.651898
G1 X84.732 Y67.253 E.0114
;WIDTH:0.605949
G1 X84.804 Y67.084 E.01053
;WIDTH:0.559999
G1 X85.085 Y66.581 E.0303
G1 X85.448 Y66.191 E.02809
G1 X85.89 Y65.891 E.02809
G1 X86.386 Y65.697 E.02805
G1 X87.132 Y65.634 E.03937
M204 S3000
G1 E-2 F3000
G1 Z.65 F18000
G1 X89.567 Y69.408
G1 Z.25
G1 E2 F1800
M204 S1000
;WIDTH:0.640054
G1 X89.567 Y70.567 E.07066
G1 X88.408 Y70.567 E.07066
G1 X88.709 Y70.378 E.0217
G1 X89.196 Y69.938 E.03997
G1 X89.533 Y69.457 E.0358
M204 S3000
G1 E-2 F3000
G1 Z.65 F18000
G1 X85.592 Y70.567
G1 Z.25
G1 E2 F1800
M204 S1000
;WIDTH:0.640053
G1 X84.433 Y70.567 E.07066
G1 X84.433 Y69.371 E.07293
G1 X84.805 Y69.938 E.04138
G1 X85.062 Y70.196 E.02216
G1 X85.543 Y70.533 E.0358
M204 S3000
G1 E-2 F3000
G1 Z.65 F18000
G1 X84.393 Y53.235
G1 Z.25
G1 E2 F1800
M204 S1000
;WIDTH:0.559999
G1 X84.656 Y53.688 E.02756
G1 X85.09 Y54.167 E.03404
G1 X85.621 Y54.538 E.03404
G1 X85.944 Y54.683 E.01865
G1 X86.669 Y54.874 E.03948
G1 X87.182 Y54.883 E.02699
G1 X87.819 Y54.77 E.03404
G1 X88.415 Y54.518 E.03404
G1 X88.71 Y54.321 E.01865
G1 X89.116 Y53.957 E.02873
G1 X89.344 Y53.687 E.0186
G1 X89.607 Y53.224 E.02803
G1 X89.607 Y66.77 E.7129
G1 X89.321 Y66.29 E.02938
G1 X88.957 Y65.884 E.02873
G1 X88.626 Y65.619 E.02232
G1 X88.148 Y65.356 E.02869
G1 X87.818 Y65.23 E.0186
G1 X87.464 Y65.149 E.01914
G1 X87.111 Y65.119 E.01865
G1 X86.566 Y65.15 E.02873
G1 X86.219 Y65.219 E.0186
G1 X85.621 Y65.462 E.034
G1 X85.09 Y65.833 E.03404
G1 X84.656 Y66.312 E.03404
G1 X84.393 Y66.776 E.02807
G1 X84.393 Y63.923 E.15013
G1 X84.35 Y63.546 E.01997
G1 X84.19 Y63.185 E.02078
G1 X83.886 Y62.86 E.02339
G1 X83.571 Y62.688 E.01891
G1 X83.127 Y62.607 E.02377
G1 X80.393 Y62.607 E.14389
G1 X80.393 Y57.393 E.27444
G1 X83.127 Y57.393 E.14389
G1 X83.571 Y57.312 E.02377
G1 X83.886 Y57.14 E.01891
G1 X84.188 Y56.817 E.02323
G1 X84.351 Y56.45 E.02112
G1 X84.393 Y56.127 E.01717
G1 X84.393 Y53.295 E.14902
M204 S3000
G1 E-2 F3000
G1 Z.65 F18000
G1 X89.436 Y56.012
G1 Z.25
G1 E2 F1800
M204 S1000
;TYPE:Internal infill
;WIDTH:0.56
G1 X88.358 Y54.935 E.0802
G1 X87.902 Y55.11 E.0257
G1 X87.537 Y55.194 E.01975
G1 X87.187 Y55.233 E.01853
G1 X86.629 Y55.222 E.02936
G1 X86.376 Y55.171 E.0136
G1 X85.841 Y55.017 E.02929
G1 X85.465 Y54.849 E.02165
G1 X89.257 Y58.641 E.28222
G1 X89.257 Y61.449 E.14777
G1 X84.597 Y56.789 E.34685
G1 X84.482 Y57.008 E.01303
G1 X84.301 Y57.238 E.01541
G1 X84.098 Y57.42 E.01434
G1 X83.919 Y57.536 E.01122
G1 X83.694 Y57.641 E.01305
G1 X83.424 Y57.716 E.01473
G1 X83.131 Y57.743 E.01549
G1 X82.743 Y57.743 E.02043
G1 X89.257 Y64.257 E.48481
G1 X89.257 Y65.679 E.07483
G1 X88.802 Y65.316 E.03059
G1 X88.312 Y65.046 E.02948
G1 X87.903 Y64.89 E.02303
G1 X87.535 Y64.806 E.01986
G1 X87.097 Y64.769 E.02314
G1 X86.97 Y64.778 E.0067
G1 X80.743 Y58.551 E.46346
G1 X80.743 Y61.359 E.14777
G1 X81.641 Y62.257 E.06685
G1 X83.131 Y62.257 E.07842
G1 X83.424 Y62.284 E.01549
G1 X83.694 Y62.359 E.01473
G1 X83.919 Y62.464 E.01305
G1 X84.098 Y62.58 E.01123
G1 X84.302 Y62.763 E.01444
G1 X84.484 Y62.995 E.01551
G1 X84.628 Y63.272 E.01644
G1 X84.726 Y63.634 E.01974
G1 X84.743 Y63.869 E.01241
G1 X84.747 Y65.362 E.07855
G1 X85.04 Y65.655 E.02183
M204 S3000
G1 E-2 F3000
G1 Z.65 F18000
G1 X77.62 Y99.62
G1 Z.25
G1 E2 F1800
M204 S1000
;TYPE:External perimeter
;WIDTH:0.559999
G1 X38.38 Y99.62 E2.06516
G1 X38.38 Y20.38 E4.17031
G1 X77.62 Y20.38 E2.06516
G1 X77.62 Y99.56 E4.16715
M204 S3000
G1 X77.247 Y99.475 F18000
G1 X77.114 Y99.114
M204 S1000
;TYPE:Perimeter
G1 F1800
G1 X38.886 Y99.114 E2.01186
G1 X38.886 Y20.886 E4.11701
G1 X77.114 Y20.886 E2.01186
G1 X77.114 Y99.054 E4.11386
M204 S3000
G1 E-2 F3000
G1 Z.65 F18000
G1 X76.763 Y94.985
G1 Z.25
G1 E2 F1800
M204 S1000
;TYPE:Internal infill
;WIDTH:0.56
G1 X39.237 Y94.985 E1.97497
M204 S3000
G1 E-2 F3000
G1 Z.65 F18000
G1 X39.258 Y86.902
G1 Z.25
G1 E2 F1800
M204 S1000
G1 X76.741 Y86.902 E1.9727
M204 S3000
G1 E-2 F3000
G1 Z.65 F18000
G1 X76.763 Y78.818
G1 Z.25
G1 E2 F1800
M204 S1000
G1 X39.237 Y78.818 E1.97497
G1 X39.237 Y71.029 E.40994
G1 X67.984 Y21.237 E3.0259
G1 X66.683 Y21.237 E.06847
G1 X76.763 Y38.696 E1.06099
G1 X76.763 Y46.485 E.40995
G1 X39.237 Y46.485 E1.97497
G1 X39.237 Y38.696 E.40993
G1 X49.317 Y21.237 E1.06099
G1 X48.016 Y21.237 E.06848
G1 X76.763 Y71.029 E3.0259
M204 S3000
G1 E-2 F3000
G1 Z.65 F18000
G1 X64.774 Y98.763
G1 Z.25
G1 E2 F1800
M204 S1000
G1 X39.237 Y54.531 E2.688
G1 X39.237 Y54.862 E.01741
G1 X58.65 Y21.237 E2.04344
G1 X57.349 Y21.237 E.06848
G1 X76.763 Y54.862 E2.04345
G1 X76.763 Y54.531 E.01744
G1 X51.226 Y98.763 E2.68802
G1 X55.44 Y98.763 E.22181
G1 X39.237 Y70.698 E1.70555
G1 X39.237 Y70.735 E.00195
G1 X76.763 Y70.735 E1.97497
G1 X76.763 Y70.697 E.00198
G1 X60.56 Y98.763 E1.70557
M204 S3000
G1 E-2 F3000
G1 Z.65 F18000
G1 X39.237 Y62.652
G1 Z.25
G1 E2 F1800
M204 S1000
G1 X76.763 Y62.652 E1.97497
M204 S3000
G1 E-2 F3000
G1 Z.65 F18000
G1 X76.742 Y54.568
G1 Z.25
G1 E2 F1800
M204 S1000
G1 X39.258 Y54.568 E1.97272
M204 S3000
G1 E-2 F3000
G1 Z.65 F18000
G1 X39.983 Y21.237
G1 Z.25
G1 E2 F1800
M204 S1000
G1 X39.237 Y22.529 E.07853
G1 X39.237 Y22.198 E.01743
G1 X76.763 Y87.196 E3.94995
G1 X76.763 Y86.864 E.01743
G1 X69.893 Y98.763 E.7231
G1 X74.108 Y98.763 E.22182
G1 X39.237 Y38.365 E3.67046
G1 X39.237 Y38.402 E.00193
G1 X76.763 Y38.402 E1.97497
G1 X76.763 Y38.364 E.00197
G1 X41.892 Y98.763 E3.67048
G1 X46.107 Y98.763 E.22181
G1 X39.237 Y86.864 E.7231
G1 X39.237 Y87.196 E.01743
G1 X76.763 Y22.198 E3.94995
G1 X76.763 Y22.529 E.01743
G1 X76.017 Y21.237 E.07854
M204 S3000
G1 X76.742 Y22.235 F18000
M204 S1000
G1 F1800
G1 X39.258 Y22.235 E1.97273
M204 S3000
G1 E-2 F3000
G1 Z.65 F18000
G1 X39.237 Y30.318
G1 Z.25
G1 E2 F1800
M204 S1000
G1 X76.763 Y30.318 E1.97497
M204 S3000
G1 E-2 F3000
G1 Z.65 F18000
G1 X36.62 Y48.38
G1 Z.25
G1 E2 F1800
M204 S1000
;TYPE:External perimeter
;WIDTH:0.559999
G1 X36.62 Y71.62 E1.22309
G1 X29.38 Y71.62 E.38103
G1 X29.38 Y48.38 E1.22309
G1 X36.56 Y48.38 E.37788
M204 S3000
G1 X36.58 Y48.778 F18000
G1 X36.114 Y48.886
M204 S1000
;TYPE:Perimeter
G1 F1800
G1 X36.114 Y71.114 E1.1698
G1 X29.886 Y71.114 E.32774
G1 X29.886 Y48.886 E1.1698
G1 X36.054 Y48.886 E.32458
M204 S3000
G1 X35.607 Y49.393 F18000
M204 S1000
G1 F1800
G1 X35.607 Y70.607 E1.1165
G1 X30.393 Y70.607 E.27444
G1 X30.393 Y49.393 E1.1165
G1 X35.547 Y49.393 E.27128
M204 S3000
G1 X34.807 Y49.743 F18000
M204 S1000
;TYPE:Internal infill
;WIDTH:0.56
G1 F1800
G1 X35.257 Y50.527 E.04755
G1 X30.743 Y50.527 E.23755
G1 X31.193 Y49.743 E.04755
M204 S3000
G1 X32.888 Y50.848 F18000
M204 S1000
G1 F1800
G1 X32.019 Y52.354 E.09152
G1 X32.131 Y52.547 E.01174
G1 X33.869 Y52.547 E.09152
G1 X33.981 Y52.354 E.01174
G1 X33.112 Y50.848 E.09152
G1 X32.888 Y50.848 E.01174
M204 S3000
G1 E-2 F3000
G1 Z.65 F18000
G1 X35.257 Y58.606
G1 Z.25
G1 E2 F1800
